resources/svg/file-x.svg

<svg width="15" height="15" viewBox="0 0 15 15" fill="none" xmlns="http://www.w3.org/2000/svg">
<path fill-rule="evenodd" clip-rule="evenodd" d="M1 1.5C1 0.671573 1.67157 0 2.5 0H10.7071L14 3.29289V13.5C14 14.3284 13.3284 15 12.5 15H2.5C1.67157 15 1 14.3284 1 13.5V1.5ZM9.14648 9.85353L7.50004 8.20708L5.85359 9.85353L5.14648 9.14642L6.79293 7.49998L5.14648 5.85353L5.85359 5.14642L7.50004 6.79287L9.14648 5.14642L9.85359 5.85353L8.20714 7.49998L9.85359 9.14642L9.14648 9.85353Z" fill="black"/>
</svg>

<svg viewBox="0 0 15 15" fill="none" xmlns="http://www.w3.org/2000/svg" fill="currentColor"><path fill-rule="evenodd" clip-rule="evenodd" d="M1 1.5A1.5 1.5 0 012.5 0h8.207L14 3.293V13.5a1.5 1.5 0 01-1.5 1.5h-10A1.5 1.5 0 011 13.5v-12zm8.146 8.354L7.5 8.207 5.854 9.854l-.708-.708L6.793 7.5 5.146 5.854l.708-.708L7.5 6.793l1.646-1.647.708.708L8.207 7.5l1.647 1.646-.708.708z" fill="currentColor"/></svg>
